svg/Pictogram/pictograms-nps-misc-beach_access.svg

<svg xmlns="http://www.w3.org/2000/svg" viewBox="0 0 256 256"><path d="m0 0c-.542 0-.982-.44-.982-.98v-7.522c0-.541.44-.982.982-.982h7.521c.542 0 .981.441.981.982v7.522c0 .54-.439.98-.981.98h-7.521" fill="#fff" transform="matrix(25.90307 0 0-25.90307 30.604 5.165)"/><path d="m0 0c.652 0 1.182.529 1.182 1.182v7.521c0 .652-.53 1.18-1.182 1.18h-7.521c-.653 0-1.182-.528-1.182-1.18v-7.521c0-.653.529-1.182 1.182-1.182h7.521" transform="matrix(25.90307 0 0-25.90307 225.43 256)"/><g fill="#fff"><path d="m0 0c.563.663 1.588 1.128 2.467.981.098 1.207-.039 2.337.563 3.45-1.868-.123-2.735-2.976-3.03-4.431" transform="matrix(25.90307 0 0-25.90307 18.311 152.66)"/><path d="m0 0c.393.467 1.32.705 1.807.268-1.27 1.773-2.84 2.912-5.072 2.154 1.745-.531 2.968-2.159 3.265-2.422" transform="matrix(25.90307 0 0-25.90307 189.82 97.8)"/><path d="m0 0c-.61.852-2.529 2.212-2.952 2.127-.451-.09-.575-2.645-.534-3.193.267.502.676.88 1.15 1.116l1.947-5.299.266.066-1.965 5.34c.65.241 1.397.22 2.088-.157" transform="matrix(25.90307 0 0-25.90307 180.71 99.67)"/></g></svg>

<?xml version="1.0" encoding="UTF-8" standalone="no"?>
<!-- Created with Inkscape (http://www.inkscape.org/) -->
<svg
   xmlns:dc="http://purl.org/dc/elements/1.1/"
   xmlns:cc="http://creativecommons.org/ns#"
   xmlns:rdf="http://www.w3.org/1999/02/22-rdf-syntax-ns#"
   xmlns:svg="http://www.w3.org/2000/svg"
   xmlns="http://www.w3.org/2000/svg"
   xmlns:sodipodi="http://sodipodi.sourceforge.net/DTD/sodipodi-0.dtd"
   xmlns:inkscape="http://www.inkscape.org/namespaces/inkscape"
   width="256"
   height="256"
   id="svg8302"
   sodipodi:version="0.32"
   inkscape:version="0.46"
   version="1.0"
   sodipodi:docname="pictograms-nps-misc-beach_access-2.svg"
   inkscape:output_extension="org.inkscape.output.svg.inkscape">
  <defs
     id="defs8304">
    <inkscape:perspective
       sodipodi:type="inkscape:persp3d"
       inkscape:vp_x="0 : 526.18109 : 1"
       inkscape:vp_y="0 : 1000 : 0"
       inkscape:vp_z="744.09448 : 526.18109 : 1"
       inkscape:persp3d-origin="372.04724 : 350.78739 : 1"
       id="perspective8310" />
  </defs>
  <sodipodi:namedview
     id="base"
     pagecolor="#ffffff"
     bordercolor="#666666"
     borderopacity="1.0"
     gridtolerance="10000"
     guidetolerance="10"
     objecttolerance="10"
     inkscape:pageopacity="0.0"
     inkscape:pageshadow="2"
     inkscape:zoom="0.7"
     inkscape:cx="61.634556"
     inkscape:cy="136.73676"
     inkscape:document-units="px"
     inkscape:current-layer="layer1"
     showgrid="false"
     inkscape:window-width="738"
     inkscape:window-height="674"
     inkscape:window-x="0"
     inkscape:window-y="198" />
  <metadata
     id="metadata8307">
    <rdf:RDF>
      <cc:Work
         rdf:about="">
        <dc:format>image/svg+xml</dc:format>
        <dc:type
           rdf:resource="http://purl.org/dc/dcmitype/StillImage" />
      </cc:Work>
    </rdf:RDF>
  </metadata>
  <g
     inkscape:label="Layer 1"
     inkscape:groupmode="layer"
     id="layer1">
    <g
       id="g3166"
       transform="matrix(25.903066,0,0,-25.903066,30.604369,5.1652786)">
      <path
         d="M 0,0 C -0.542,0 -0.982,-0.44 -0.982,-0.98 L -0.982,-8.502 C -0.982,-9.043 -0.542,-9.484 0,-9.484 L 7.521,-9.484 C 8.063,-9.484 8.502,-9.043 8.502,-8.502 L 8.502,-0.98 C 8.502,-0.44 8.063,0 7.521,0 L 0,0 z"
         style="fill:#ffffff;fill-opacity:1;fill-rule:nonzero;stroke:none"
         id="path3168" />
    </g>
    <g
       id="g3170"
       transform="matrix(25.903066,0,0,-25.903066,225.43438,256)">
      <path
         d="M 0,0 C 0.652,0 1.182,0.529 1.182,1.182 L 1.182,8.703 C 1.182,9.355 0.652,9.883 0,9.883 L -7.521,9.883 C -8.174,9.883 -8.703,9.355 -8.703,8.703 L -8.703,1.182 C -8.703,0.529 -8.174,0 -7.521,0 L 0,0 z"
         style="fill:#000000;fill-opacity:1;fill-rule:nonzero;stroke:none"
         id="path3172" />
    </g>
    <g
       id="g3174"
       transform="matrix(25.903066,0,0,-25.903066,18.310566,152.665)">
      <path
         d="M 0,0 C 0.563,0.663 1.588,1.128 2.467,0.981 C 2.565,2.188 2.428,3.318 3.03,4.431 C 1.162,4.308 0.295,1.455 0,0"
         style="fill:#ffffff;fill-opacity:1;fill-rule:nonzero;stroke:none"
         id="path3176" />
    </g>
    <g
       id="g3178"
       transform="matrix(25.903066,0,0,-25.903066,189.81767,97.799408)">
      <path
         d="M 0,0 C 0.393,0.467 1.32,0.705 1.807,0.268 C 0.537,2.041 -1.033,3.18 -3.265,2.422 C -1.52,1.891 -0.297,0.263 0,0"
         style="fill:#ffffff;fill-opacity:1;fill-rule:nonzero;stroke:none"
         id="path3180" />
    </g>
    <g
       id="g3182"
       transform="matrix(25.903066,0,0,-25.903066,180.71264,99.669817)">
      <path
         d="M 0,0 C -0.61,0.852 -2.529,2.212 -2.952,2.127 C -3.403,2.037 -3.527,-0.518 -3.486,-1.066 C -3.219,-0.564 -2.81,-0.186 -2.336,0.05 L -0.389,-5.249 L -0.123,-5.183 L -2.088,0.157 C -1.438,0.398 -0.691,0.377 0,0"
         style="fill:#ffffff;fill-opacity:1;fill-rule:nonzero;stroke:none"
         id="path3184" />
    </g>
  </g>
</svg>
